X: 209
%
U:~=!turn!
T: The Gordons
C:
O:Scotland
B:Keith Norman MacDonald : "The Skye collection of the best reels & strathspeys extant" : 1887
Z:Ralph Palmer
R:Strathspey
M:C
L:1/8
K:Am
A2 B<d e2 d<B | (BA) A/A/A B<AA<c | B<dd>B cBAG | E2 G>A GEDE |
D>EG>A B2 g>^f | e>dg>^f e>dB<d | e>^fg>f e<dc<B | A/A/A e>d B<A A ||
B | A<aa<b a2 g>^f | e>de<g a>ee>^f | g>ab>a g/a/g/^f/ g<e | d>edc BGGB |
A<aa>b a2 g^f | e>dB>d e>^fg>a | b<ga<e g<ed>B | A<ae>d B>A A2 |]


